packages/core/src/svgs/mtd.svg

<svg width="24" height="24" viewBox="0 0 24 24" fill="none" xmlns="http://www.w3.org/2000/svg">
<g clip-path="url(#clip0_31_14386)">
<path d="M0 0H24V24H0V0Z" fill="#FF1826"/>
<path d="M6 15H15V6H18V18H6V15ZM6 6H9V10.7143H6V6ZM10.2857 6H13.2857V10.7143H10.2857V6Z" fill="white"/>
</g>
<defs>
<clipPath id="clip0_31_14386">
<rect width="24" height="24" fill="white"/>
</clipPath>
</defs>
</svg>

<svg xmlns="http://www.w3.org/2000/svg" width="24" height="24" fill="none" viewBox="0 0 24 24"><g clip-path="url(#a)"><path fill="#FF1826" d="M0 0h24v24H0z"/><path fill="#fff" d="M6 15h9V6h3v12H6zm0-9h3v4.714H6zm4.286 0h3v4.714h-3z"/></g><defs><clipPath id="a"><path fill="#fff" d="M0 0h24v24H0z"/></clipPath></defs></svg>
